dist/assets/img/footer/arrow.svg

<svg width="51" height="51" viewBox="0 0 51 51" fill="none" xmlns="http://www.w3.org/2000/svg">
<g clip-path="url(#clip0)">
<path d="M25.8393 0.471455C25.4332 0.0642523 24.7738 0.0634713 24.3666 0.4696C24.366 0.470186 24.3653 0.470869 24.3647 0.471455L5.62033 19.2158C5.22075 19.6295 5.23227 20.2888 5.64591 20.6884C6.0495 21.0781 6.68925 21.0781 7.09275 20.6884L24.0606 3.72048V49.109C24.0606 49.6841 24.5269 50.1503 25.102 50.1503C25.6771 50.1503 26.1434 49.6841 26.1434 49.109V3.72048L43.1091 20.6862C43.5087 21.0999 44.1679 21.1114 44.5816 20.7118C44.9953 20.3122 45.0067 19.653 44.6072 19.2393C44.5988 19.2306 44.5903 19.2221 44.5816 19.2137L25.8393 0.471455Z" fill="#4CAF50"/>
<path d="M43.8464 20.9924C43.57 20.9929 43.3047 20.8836 43.1091 20.6883L25.102 2.67918L7.09488 20.6884C6.68124 21.088 6.02196 21.0765 5.62237 20.6629C5.23265 20.2593 5.23265 19.6195 5.62237 19.216L24.3668 0.471637C24.7734 0.0651183 25.4326 0.0651183 25.8393 0.471637L44.5837 19.216C44.9897 19.6233 44.9887 20.2827 44.5813 20.6887C44.3862 20.8832 44.1219 20.9924 43.8464 20.9924Z" fill="black"/>
<path d="M25.1022 50.1503C24.5271 50.1503 24.0608 49.6841 24.0608 49.1089V1.20667C24.0608 0.63155 24.5271 0.165283 25.1022 0.165283C25.6773 0.165283 26.1436 0.63155 26.1436 1.20667V49.109C26.1435 49.6841 25.6773 50.1503 25.1022 50.1503Z" fill="black"/>
</g>
<defs>
<clipPath id="clip0">
<rect width="49.985" height="49.985" fill="white" transform="translate(0.121216 0.165283)"/>
</clipPath>
</defs>
</svg>

<svg width="51" height="51" fill="none" xmlns="http://www.w3.org/2000/svg"><g clip-path="url(#clip0)"><path d="M25.84.471A1.041 1.041 0 0024.366.47l-.002.001L5.62 19.216a1.042 1.042 0 001.473 1.472L24.06 3.72v45.39a1.041 1.041 0 002.082 0V3.72L43.11 20.686a1.041 1.041 0 101.473-1.472L25.839.47z" fill="#4CAF50"/><path d="M43.846 20.992a1.04 1.04 0 01-.737-.304L25.102 2.68 7.095 20.69a1.041 1.041 0 01-1.473-1.473L24.367.472a1.041 1.041 0 011.472 0l18.745 18.744a1.041 1.041 0 01-.738 1.776z" fill="#000"/><path d="M25.102 50.15a1.041 1.041 0 01-1.041-1.041V1.207a1.041 1.041 0 012.083 0v47.902c0 .575-.467 1.041-1.042 1.041z" fill="#000"/></g><defs><clipPath id="clip0"><path fill="#fff" transform="translate(.121 .165)" d="M0 0h49.985v49.985H0z"/></clipPath></defs></svg>
